X:1
T:Le Bonheur au Quotidien
C:Jean Duval
O:Montreal, Canada
Z:robin.beech@mcgill.ca
M:4/4
L:1/8
R:air
K:G
GA | B2AdB2AG | ED GE D2 GA | B2 Ad B2 AG | ED DE G2 GA |
B2 Ad B2 AG | ED GE D2 D/E/D/E/ | G2 (3GAB d2 eB | AG BA G2 ||
Bd | e2 dg e2 dB | AG BG ED zB/d/ | e2 dg e2 eg | a2 bg ed Bd |
e2 dg e2 dB | AG BG ED z D/E/ | G2 (3GAB d2 eB | AG BA G2|]
